src/assets/showcase/images/home/quote.svg

<svg height="60" viewBox="0 0 88 60" width="88" xmlns="http://www.w3.org/2000/svg"><path d="m14.625.36218c-8.070713 0-14.625 6.55429-14.625 14.625v10.75c0 8.0707 6.554285 14.625 14.625 14.625h7.03125c-.889932 5.9695-1.855321 11.353-3.59375 17.4375-.349575 1.193165.69423 2.573681 1.9375 2.5625 2.821805 0 5.142717-1.8521 7.34375-4.25s4.303627-5.55565 6.15625-9.03125c3.705245-6.9514 6.5-14.95585 6.5-20.71875 0-3.791667 0-7.583333 0-11.375 0-8.07071-6.554287-14.625-14.625-14.625zm48 0c-8.070713 0-14.625 6.55429-14.625 14.625v10.75c0 8.0707 6.554285 14.625 14.625 14.625h7.03125c-.889932 5.9695-1.855321 11.353-3.59375 17.4375-.349575 1.193165.69423 2.573681 1.9375 2.5625 2.821805 0 5.142717-1.8521 7.34375-4.25s4.303627-5.55565 6.15625-9.03125c3.705245-6.9514 6.5-14.95585 6.5-20.71875 0-3.791667 0-7.583333 0-11.375 0-8.07071-6.554287-14.625-14.625-14.625z" fill="#fff" transform="translate(0 -.36218)"/></svg>

<?xml version="1.0" encoding="UTF-8"?>
<svg width="88px" height="60px" viewBox="0 0 88 60" version="1.1" xmlns="http://www.w3.org/2000/svg" xmlns:xlink="http://www.w3.org/1999/xlink">
    <!-- Generator: Sketch 48.2 (47327) - http://www.bohemiancoding.com/sketch -->
    <title>Shape</title>
    <desc>Created with Sketch.</desc>
    <defs></defs>
    <g id="Page-1" stroke="none" stroke-width="1" fill="none" fill-rule="evenodd">
        <g id="noun_469496_cc" transform="translate(0.000000, -1.000000)" fill="#FFFFFF" fill-rule="nonzero">
            <g id="Group" transform="translate(0.000000, 0.637820)">
                <path d="M14.625,0.36218 C6.554287,0.36218 0,6.91647 0,14.98718 L0,25.73718 C0,33.80788 6.554285,40.36218 14.625,40.36218 L21.65625,40.36218 C20.766318,46.33168 19.800929,51.71518 18.0625,57.79968 C17.712925,58.992845 18.75673,60.373361 20,60.36218 C22.821805,60.36218 25.142717,58.51008 27.34375,56.11218 C29.544783,53.71428 31.647377,50.55653 33.5,47.08093 C37.205245,40.12953 40,32.12508 40,26.36218 C40,22.570513 40,18.778847 40,14.98718 C40,6.91647 33.445713,0.36218 25.375,0.36218 L14.625,0.36218 Z M62.625,0.36218 C54.554287,0.36218 48,6.91647 48,14.98718 L48,25.73718 C48,33.80788 54.554285,40.36218 62.625,40.36218 L69.65625,40.36218 C68.766318,46.33168 67.800929,51.71518 66.0625,57.79968 C65.712925,58.992845 66.75673,60.373361 68,60.36218 C70.821805,60.36218 73.142717,58.51008 75.34375,56.11218 C77.544783,53.71428 79.647377,50.55653 81.5,47.08093 C85.205245,40.12953 88,32.12508 88,26.36218 C88,22.570513 88,18.778847 88,14.98718 C88,6.91647 81.445713,0.36218 73.375,0.36218 L62.625,0.36218 Z" id="Shape"></path>
            </g>
        </g>
    </g>
</svg>
